X:405
T:Celebrated French Air.2voices RH.405
R:air
S:Rev.R.Harrison’s MS,c1815,Cumbria
O:England
A:Temple Sowerby,Cumbria
Z:vmp.Simon Wilson. Review PJH, 2008.
M:6/8
L:1/8
Q:80
K:G
[V:1] d|(dbg) fef|gbg d2d|(ed).c (c’b).a|(g3 f2)d|
[V:2] B|(Bd).B (AG).A|B3 (BG).B|(cB).c (e[Dd]).c|(B3 A2)d|
%
[V:1] (db).g (fe).f|(gb).g d2d|agf ede|d3 z2d|
[V:2] (Bd).B (AG).A|B3 (Bd).g|(fe).d (GF).G|(FA).F D2z|
%
[V:1] (a3a) fd|(b3 b) gd|(c’b).f (gd).B|(A3 A2)d|
[V:2] (FA).d (FA).d|(GB).d (GB).d|FAc FAc|Dc.d D2z|
%
[V:1] (a3a) fd|(b3 b) gd|c’af gdB|{B}A2d a2f|
[V:2] (FA).d (FA).d|(GB).d (GB).d|(FA).cB2G|F2z c3|
%
[V:1] g2g a2b|c’b.a e2e|c’2b aga|gd2 a2f|g2g a2b|
[V:2] B2B c2d|edc c2c|e2d cBc|BGB cAc|B2g f2=f|
%
[V:1] (c’b).a e2e|c’2b aga|(g/a/b/a/g/f/) e2e|c’2b aga|ggg g2|]
[V:2] (ed).c c2c|e2d cBc|B2z(c/d/c/B/c/e/)|e2e cBc|BBBB2|]

